packages/swarm-icons/src/icons/line/Meetup.svg

<svg xmlns="http://www.w3.org/2000/svg" width="24" height="24" viewBox="0 0 24 24">
  <path fill="#757575" d="M14.6678783,15.7787125 C14.6688656,17.1513513 15.6125215,18.3642804 16.9505762,18.776533 C17.6211985,18.983333 18.3129344,19.0814141 19.0149232,19.1102782 C19.5161052,19.1304901 20.0166795,19.0977964 20.4797354,18.8822733 C20.8438309,18.7124931 21.0153978,18.432079 20.9989171,18.0584064 C20.9824363,17.6823225 20.8021354,17.4009865 20.4168504,17.2513472 C20.2829538,17.1993635 20.1470065,17.1570958 20.0048316,17.1339761 C19.5799016,17.0632698 19.152921,17.0036269 18.7300417,16.9252613 C18.032154,16.7954084 17.7396017,16.4505289 17.730336,15.7916198 C17.7221336,15.2087358 17.891574,14.6589711 18.0836469,14.1150218 C18.4349071,13.1194597 18.9087477,12.1705624 19.362538,11.2139349 C19.8008348,10.290072 20.2602453,9.37386839 20.56981,8.40085859 C20.7403136,7.86655423 20.8216541,7.33076057 20.6666439,6.77815908 C20.4307489,5.9393991 19.8925042,5.37722354 18.9643418,5.21552804 C18.1144818,5.06787451 17.268799,5.05106669 16.5002796,5.52430972 C16.24479,5.68111181 15.9990976,5.64359561 15.7771771,5.46083714 C15.6077368,5.32183574 15.4464988,5.17467865 15.280628,5.03184762 C14.496767,4.35613061 13.4604544,4.32294048 12.6188728,4.94000741 C12.2794604,5.18914614 11.9935916,5.49792782 11.6247873,5.71437286 C11.2951723,5.90769827 10.962975,5.96251872 10.5978162,5.7806822 C10.2501255,5.60756872 9.89013125,5.45516361 9.53112429,5.30318402 C9.16748449,5.14978605 8.81516096,4.96029026 8.40572442,4.92802208 C7.1108842,4.82511849 5.75574113,5.54367063 5.184535,6.6358954 C4.93109598,7.11920895 4.72406129,7.62138696 4.52781124,8.12682726 C3.62182561,10.4633273 2.88376137,12.8497544 2.1199507,15.2280967 C1.77795612,16.2923794 2.18169655,17.3398542 3.14692175,17.9146534 C3.89994778,18.362862 4.72451698,18.4735667 5.57802243,18.234002 C6.26968235,18.0396837 6.64828394,17.5198469 6.91303923,16.9358991 C7.7927468,14.9986735 8.58488613,13.0286833 9.42342979,11.0759973 C9.65416031,10.5387852 9.87767575,9.99916193 10.1223807,9.46769433 C10.369592,8.93097872 11.0798592,8.74814933 11.5012196,9.1040922 C11.7582282,9.32138827 11.8262018,9.61059628 11.800987,9.91980348 C11.77319,10.2502155 11.6361795,10.5550966 11.5073714,10.8585594 C10.9619117,12.1465917 10.406199,13.4307235 9.85815708,14.717763 C9.74742466,14.9779651 9.62742656,15.2362524 9.57851594,15.5156027 C9.49459322,15.9951575 9.6979824,16.4203174 10.1182795,16.5896013 C10.546855,16.7622892 10.9918353,16.7911533 11.4362839,16.6405921 C11.953415,16.4655638 12.2624481,16.0874942 12.5003936,15.6507745 C13.3183554,14.1506941 14.1300893,12.6472095 14.9474434,11.1472 C15.3249818,10.4541788 15.7092035,9.76449069 16.0950202,9.07572457 C16.2381825,8.82034496 16.4061039,8.57843997 16.673973,8.41972306 C16.9155641,8.27689203 17.1761423,8.26625417 17.4238852,8.39617793 C17.6654763,8.52262665 17.6818811,8.75353918 17.6716281,8.98147311 C17.665932,9.1040922 17.6294009,9.22387453 17.5788954,9.33784149 C17.4727958,9.57492398 17.3739113,9.81541059 17.2564195,10.0477415 C16.5765315,11.3832896 15.8863906,12.7136607 15.2126544,14.0521165 C14.9284564,14.6171998 14.6327902,15.1847652 14.6678783,15.7787125 Z"/>
</svg>

<svg xmlns="http://www.w3.org/2000/svg" width="24" height="24"><path fill="#757575" d="M14.668 15.779c0 1.372.945 2.585 2.283 2.998.67.206 1.362.304 2.064.333.501.02 1.002-.012 1.465-.228.364-.17.535-.45.519-.824-.017-.376-.197-.657-.582-.807a2.043 2.043 0 00-.412-.117c-.425-.07-.852-.13-1.275-.209-.698-.13-.99-.474-1-1.133-.008-.583.162-1.133.354-1.677.35-.996.825-1.944 1.279-2.901.438-.924.897-1.84 1.207-2.813.17-.534.252-1.07.097-1.623-.236-.839-.774-1.4-1.703-1.562-.85-.148-1.695-.165-2.464.308-.255.157-.5.12-.723-.063-.17-.14-.33-.286-.496-.43-.784-.675-1.82-.708-2.662-.091-.34.25-.625.558-.994.774-.33.194-.662.249-1.027.067a19.043 19.043 0 00-1.067-.478c-.364-.153-.716-.343-1.125-.375-1.295-.103-2.65.616-3.221 1.708-.254.483-.46.985-.657 1.49-.906 2.337-1.644 4.724-2.408 7.102-.342 1.064.062 2.112 1.027 2.687a3.014 3.014 0 002.431.319c.692-.194 1.07-.714 1.335-1.298.88-1.937 1.672-3.907 2.51-5.86.231-.537.455-1.077.7-1.608.247-.537.957-.72 1.378-.364.257.217.325.507.3.816-.028.33-.165.635-.294.939-.545 1.288-1.1 2.572-1.649 3.859-.11.26-.23.518-.28.798-.083.48.12.904.54 1.074.429.172.874.201 1.318.05.517-.174.826-.553 1.064-.99.818-1.5 1.63-3.003 2.447-4.503.378-.693.762-1.383 1.148-2.071.143-.256.311-.498.579-.656a.739.739 0 01.75-.024c.241.127.258.358.248.585a1 1 0 01-.093.357c-.106.237-.205.477-.323.71-.68 1.335-1.37 2.666-2.043 4.004-.285.565-.58 1.133-.545 1.727z"/></svg>
